X:12
T:Corriechoille's Farewell to the Northern Meeting
Z:Jack Campin, 2006, http://www.campin.me.uk/
M:2/4
L:1/8
Q:1/4=110
K:D
e |A>B Ad|e>d BA|d>e fa|fe ef|
   A>B Ad|e>d BA|d>e fa|fd d:|
f |a>f df|e>d BA|d>e fa|fe ef|
[1 a>f df|e>d BA|d>e fa|fd d:|
[2 A>B Ad|e>d BA|d>e fa|fd d|]

